symbols/web/card_travel/materialsymbolssharp/card_travel_wght300fill1_24px.svg

<svg xmlns="http://www.w3.org/2000/svg" height="24" width="24"><path d="M2.5 20.5v-14h5V2.875h9V6.5h5v14ZM9 6.5h6V4.375H9ZM4 16.8h16v-2.6H4Z"/></svg>

<svg xmlns="http://www.w3.org/2000/svg" height="24" width="24"><path d="M2.5 20.5V6.5H7.5V2.875H16.5V6.5H21.5V20.5ZM9 6.5H15V4.375H9ZM4 16.8H20V14.2H4Z"/></svg>
